X: 25807
T: Mason's Apron, The
R: reel
M: 4/4
K: Gmajor
(3(def)|:gGGF GA (3(GFE)|DEGA BGAB|cAAG ABAG|FGAB cdef|
gGGF GA (3(GFE)|DEGA BGAB|(3(cec) AB cgfe|dcBA iG3 A:|
|:(3(BAG) dG (3(ege) dc|(3(BAG) dG egdB|c2 (3(edc) gcec|c2 ec gcec|
(3(BAG) dG (3(ege) dc|(3(BAG) dG egdB|(3(cec) AB cgfe|dcBA iG3 A:|
|:(3(cec) dB eBdB|iB2 dB eBdB|c2 (3(edc) gcec|ic2 ec gcec|
(3(cec) dB eBde|DEGA BGAB|(3(cec) AB cgfe|1 dcBA iG3 A:|2 dcBA G2 Bd||
|:gd id2 gdef|(3(gbg) fg ed (3(efg)|ae ie2 aefg|(3(aba) ^ga fdef|
gd id2 gdef|(3(gbg) fg edef|(3(gbg) (3(efg) dBGB|1 AGAB G2 Bd:|2 AGAB G2||

